X:42
T:Le Canal en Octobre
T:The Duck in October (joke)
M:4/4
R:
L:1/8
K:G
GA|:B2 B2 cBAG|B2 B2 cBAG|EFGBA3G|FGEF D2 A2|
|B2 B2 cBAG|B2 B2 cBAG|EFGBA2GF|G5 DGA:|2G5ABc|
|:d2 d2 cBAG|d2 d2 cBAG|EFGBA3G|FGEF D4|
|d2 d2 cBAG|d2 d2 cBAG|EFGBA2GF|1 G5 ABc:|2 G5DGA|
